X: 1
T: Samiotissa
T: Girl from Samos
O: Greece
R: kalamatianos
Z: John Chambers <jc@trillian.mit.edu> http://trillian.mit.edu/~jc/music/
N: The lower line should be considered the melody.
N: The instrumental interlude here is a "generic" interlude used in much Greek music.
M: 7/8
L: 1/8
K: G
P: Instr:
|: z[ge][fd][ec] || "D7"[d2B][dB] [cA][BG] [cA][dB] | "G"[B2G][cA] [dB][ge][fd][ec] \
| "D7"[d2B][dB] [cA][BG] [cA][dB] | "G"[B3G] :|
P: Vocal:
|: [D2G] || "G"[G2B][FA] [G2B] [A2c] | [B2d][Ac] [G4B] \
w: 1.~Sa-mio-tis-sa, Sa-mio-tis-sa,
| "C"[ce][ce][ce] [ce][Bd] [Ac][GB] | "G"[B3d] z2 :|
w: po-te tha pos ti Sa-*mo.
|: "D7"[df][df][df] "C"[eg][df] [ce][Bd] \
| "D7"[A2c][ce] "G"[Bd][Ac] [GB][Ac] \
| [B2d][Bd] "D7"[Ac][GB] [Ac][Bd] \
|1 "G"[G2B][Ac] [B2d][c2e] :|2 "G"[G3B] z2 |]
%%sep 5 5 200
P: Bb instruments:
K: A
P: Instr:
|: z[af][ge][fd] || "E7"[e2c][ec] [dB][cA] [dB][ec] | "A"[c2A][dB] [ec][af][ge][fd] \
| "E7"[e2c][ec] [dB][cA] [dB][ec] | "A"[c3A] :|
P: Vocal:
|: [E2A] || "A"[A2c][GB] [A2c] [B2d] | [c2e][Bd] [A4c] \
| "D"[df][df][df] [df][ce] [Bd][Ac] | "A"[c3e] z2 :|
|: "E7"[eg][eg][eg] "D"[fa][eg] [df][ce] \
| "E7"[B2d][df] "A"[ce][Bd] [Ac][Bd] \
| [c2e][ce] "E7"[Bd][Ac] [Bd][ce] \
|1 "A"[A2c][Bd] [c2e][d2f] :|2 "A"[A3c] z2 |]

